Newaita-dark/.DP/24/youtube-indicator-light-disabled.svg

<svg xmlns="http://www.w3.org/2000/svg" xmlns:xlink="http://www.w3.org/1999/xlink" width="24px" height="24px" viewBox="0 0 24 24" version="1.1">
<g id="surface1">
<path style=" stroke:none;fill-rule:nonzero;fill:rgb(93.333334%,93.333334%,93.333334%);fill-opacity:0.392157;" d="M 11.878906 4.363281 C 11.878906 4.363281 5.382812 4.363281 3.757812 4.789062 C 2.882812 5.03125 2.167969 5.75 1.929688 6.636719 C 1.5 8.261719 1.5 11.632812 1.5 11.632812 C 1.5 11.632812 1.5 15.015625 1.929688 16.625 C 2.167969 17.511719 2.867188 18.210938 3.757812 18.453125 C 5.398438 18.898438 11.878906 18.898438 11.878906 18.898438 C 11.878906 18.898438 18.375 18.898438 20 18.46875 C 20.890625 18.230469 21.59375 17.53125 21.828125 16.640625 C 22.257812 15.015625 22.257812 11.648438 22.257812 11.648438 C 22.257812 11.648438 22.273438 8.261719 21.828125 6.636719 C 21.59375 5.75 20.890625 5.046875 20 4.808594 C 18.375 4.363281 11.878906 4.363281 11.878906 4.363281 Z M 9.898438 7.828125 C 9.90625 7.828125 9.914062 7.828125 9.921875 7.828125 C 10.007812 7.832031 10.085938 7.855469 10.160156 7.898438 L 15.6875 11.164062 C 16.015625 11.359375 16.015625 11.832031 15.6875 12.023438 L 10.160156 15.289062 C 9.828125 15.488281 9.40625 15.25 9.40625 14.859375 L 9.40625 8.328125 C 9.40625 8.054688 9.625 7.835938 9.898438 7.828125 Z M 9.898438 7.828125 "/>
</g>
</svg>

<svg xmlns="http://www.w3.org/2000/svg" width="24" height="24"><path d="M11.879 4.363s-6.496 0-8.121.426c-.871.242-1.59.961-1.832 1.848C1.5 8.262 1.5 11.629 1.5 11.629s0 3.387.426 4.992c.242.89.941 1.594 1.832 1.832 1.64.445 8.12.445 8.12.445s6.497 0 8.122-.43a2.607 2.607 0 0 0 1.832-1.827c.426-1.625.426-4.993.426-4.993s.015-3.386-.426-5.011A2.607 2.607 0 0 0 20 4.809c-1.625-.446-8.121-.446-8.121-.446zm-1.98 3.465h.023a.499.499 0 0 1 .238.07l5.527 3.266a.498.498 0 0 1 0 .86l-5.527 3.269a.502.502 0 0 1-.754-.434V8.33c0-.274.219-.493.492-.5zm0 0" fill="#bdbdbd" fill-opacity=".392"/></svg>
